X: 8549
T: Cribbies, The
R: reel
M: 4/4
K: Bminor
|:dBBA ~B3A|FAAF ~E3A|dBBA FAAF|EDFA B3c|
dBBA ~B3A|FAAF ~E3A|defg fdde|1 fgfe dBBA:|2 fgfe dBBc||
|:dfed cedc|BAFA Bcdc|dfaf a2fe|dcBA FBBc|
d2dB cdec|BAFA B2dc|defg fdde|1 fgfe dBBc:|2 fgfe dBBA||

